icons/thunder-night.svg

<svg width="54" height="54" viewBox="0 0 54 54" fill="none" xmlns="http://www.w3.org/2000/svg">
<path d="M0 28.1919C0 30.8919 0.816683 33.3 2.45005 35.4405C4.08341 37.5811 6.21173 39.0162 8.83501 39.7946L7.20165 43.9054C7.12741 44.2459 7.25115 44.4162 7.57287 44.4162H12.8194L10.4189 52.9541H11.1366L20.813 40.9378C20.912 40.8162 20.912 40.6946 20.8378 40.573C20.7635 40.4514 20.6398 40.4027 20.4665 40.4027H15.0715L21.209 29.1405C21.3822 28.8 21.2832 28.6054 20.8873 28.6054H13.5619C13.3391 28.6054 13.1659 28.727 12.9927 28.9459L10.3446 35.9514C8.56279 35.5135 7.10266 34.5649 5.93951 33.1054C4.77635 31.6459 4.20715 30.0162 4.20715 28.2162C4.20715 26.1973 4.90009 24.4459 6.31072 22.9378C7.72136 21.4297 9.45371 20.5784 11.5078 20.3351L12.7947 20.1405C13.1164 20.1405 13.2896 19.9946 13.2896 19.727L13.4629 18.4622C13.7351 15.8351 14.8488 13.6216 16.8533 11.8459C18.8579 10.0703 21.209 9.17027 23.9065 9.17027C26.5793 9.17027 28.9303 10.0703 30.9597 11.8459C32.989 13.6216 34.1522 15.8351 34.4491 18.4378L34.6224 19.873C34.6224 20.1405 34.7709 20.2865 35.0678 20.2865H39.077C41.3291 20.2865 43.2347 21.0649 44.8433 22.5973C46.4519 24.1297 47.2438 26.0027 47.2438 28.1676C47.2438 30.2351 46.5014 32.0351 45.0165 33.5432C43.5316 35.0514 41.725 35.9027 39.572 36.073C39.275 36.073 39.1017 36.2189 39.1017 36.4865V39.8432C39.1017 40.1351 39.2502 40.2811 39.572 40.2811C41.7498 40.2081 43.7296 39.6243 45.5362 38.5297C47.3428 37.4351 48.7782 35.9757 49.8176 34.1514C50.857 32.327 51.3767 30.3324 51.3767 28.1919C51.3767 26.0757 50.8323 24.1054 49.7434 22.2324C51.6984 20.3838 52.9853 18.2676 53.604 15.8595L53.9505 14.1081C53.9753 14.0838 54 14.0108 54 13.9378C54 13.7676 53.8763 13.6459 53.604 13.573L52.2182 13.1351C50.8075 12.7459 49.5949 12.0649 48.605 11.1405C47.5903 10.2162 46.8726 9.1946 46.4519 8.14865C46.0312 7.07838 45.8084 6.00811 45.8084 4.93784C45.8084 4.30541 45.8827 3.64865 46.0064 2.99189L46.3529 1.50811C46.4519 1.26486 46.3529 1.07027 46.0064 0.948648C45.4867 0.729729 44.7443 0.535135 43.7791 0.316216C42.8139 0.0972976 41.8735 0 40.9331 0C40.0422 0 39.1265 0.0972976 38.1613 0.316216C37.2209 0.535135 36.231 0.851351 35.2163 1.31351C34.2017 1.75135 33.2117 2.40811 32.2466 3.25946C31.2814 4.11081 30.4647 5.08378 29.7718 6.22703C27.7424 5.4973 25.7626 5.13243 23.8818 5.13243C20.3923 5.13243 17.2741 6.2027 14.5765 8.31892C11.879 10.4351 10.1219 13.1595 9.35472 16.4919C6.6077 17.1243 4.35564 18.5351 2.57379 20.7243C0.890926 22.8649 0 25.3703 0 28.1919ZM20.0458 52.0784C20.0458 52.4676 20.1696 52.8568 20.417 53.1973C20.6645 53.5622 21.0357 53.8054 21.5307 53.927C21.8029 53.9757 22.0504 54 22.2731 54C23.2878 54 23.9065 53.4892 24.154 52.4676L29.8955 31.0865C30.044 30.5027 29.9945 29.9919 29.7223 29.5054C29.45 29.0189 29.0293 28.7027 28.4849 28.5568C27.9157 28.3865 27.3712 28.4351 26.8763 28.7027C26.3813 28.9703 26.0348 29.3595 25.8863 29.8946L20.1448 51.3973C20.0706 51.6405 20.0458 51.8595 20.0458 52.0784ZM30.3657 44.7324C30.3657 45.1216 30.4895 45.5108 30.7369 45.8513C30.9844 46.1919 31.3556 46.4595 31.8753 46.6054C31.9496 46.6054 32.0733 46.6054 32.2466 46.6297C32.4198 46.654 32.5683 46.6541 32.6425 46.6541C33.583 46.6541 34.1769 46.1432 34.4244 45.1216L38.1366 31.0865C38.2851 30.5027 38.2356 29.9676 37.9386 29.4811C37.6664 29.0189 37.2456 28.7027 36.6764 28.5568C36.1072 28.3865 35.5628 28.4351 35.0678 28.7027C34.5729 28.9703 34.2511 29.3595 34.1027 29.9189L30.3905 44.0757C30.3905 44.3189 30.3657 44.5378 30.3657 44.7324ZM33.4345 8.41622C34.2511 7.02973 35.3401 5.98378 36.7259 5.25405C38.0871 4.52432 39.5472 4.15946 41.0816 4.15946C41.3786 4.15946 41.626 4.15946 41.7498 4.18378V4.96216C41.7498 7.2973 42.3932 9.51081 43.6801 11.6027C44.967 13.6946 46.7736 15.2757 49.0504 16.3946C48.605 17.4162 47.9615 18.2676 47.0953 18.9973C44.8185 17.0757 42.1705 16.127 39.1265 16.127H38.3346C37.6416 13.0622 36.0083 10.5081 33.4345 8.41622Z" fill="#FFFBE9"/>
</svg>

<?xml version="1.0" encoding="UTF-8"?><svg id="Layer_2" xmlns="http://www.w3.org/2000/svg" viewBox="0 0 54 54"><defs><style>.cls-1{fill:#e7f3f6;}</style></defs><g id="Layer_1-2"><path id="thunder-night" class="cls-1" d="M0,28.19c0,2.7,.82,5.11,2.45,7.25,1.63,2.14,3.76,3.58,6.38,4.35l-1.63,4.11c-.07,.34,.05,.51,.37,.51h5.25l-2.4,8.54h.72l9.68-12.02c.1-.12,.1-.24,.02-.36-.07-.12-.2-.17-.37-.17h-5.39l6.14-11.26c.17-.34,.07-.54-.32-.54h-7.33c-.22,0-.4,.12-.57,.34l-2.65,7.01c-1.78-.44-3.24-1.39-4.41-2.85-1.16-1.46-1.73-3.09-1.73-4.89,0-2.02,.69-3.77,2.1-5.28,1.41-1.51,3.14-2.36,5.2-2.6l1.29-.19c.32,0,.49-.15,.49-.41l.17-1.26c.27-2.63,1.39-4.84,3.39-6.62,2-1.78,4.36-2.68,7.05-2.68s5.02,.9,7.05,2.68c2.03,1.78,3.19,3.99,3.49,6.59l.17,1.44c0,.27,.15,.41,.45,.41h4.01c2.25,0,4.16,.78,5.77,2.31s2.4,3.41,2.4,5.57-.74,3.87-2.23,5.38c-1.48,1.51-3.29,2.36-5.44,2.53-.3,0-.47,.15-.47,.41v3.36c0,.29,.15,.44,.47,.44,2.18-.07,4.16-.66,5.96-1.75,1.81-1.09,3.24-2.55,4.28-4.38,1.04-1.82,1.56-3.82,1.56-5.96s-.54-4.09-1.63-5.96c1.95-1.85,3.24-3.96,3.86-6.37l.35-1.75s.05-.1,.05-.17c0-.17-.12-.29-.4-.36l-1.39-.44c-1.41-.39-2.62-1.07-3.61-1.99-1.01-.92-1.73-1.95-2.15-2.99-.42-1.07-.64-2.14-.64-3.21,0-.63,.07-1.29,.2-1.95l.35-1.48c.1-.24,0-.44-.35-.56-.52-.22-1.26-.41-2.23-.63-.97-.22-1.91-.32-2.85-.32-.89,0-1.81,.1-2.77,.32-.94,.22-1.93,.54-2.94,1-1.01,.44-2,1.09-2.97,1.95-.97,.85-1.78,1.82-2.47,2.97-2.03-.73-4.01-1.09-5.89-1.09-3.49,0-6.61,1.07-9.31,3.19-2.7,2.12-4.45,4.84-5.22,8.17-2.75,.63-5,2.04-6.78,4.23-1.68,2.14-2.57,4.65-2.57,7.47Zm20.05,23.89c0,.39,.12,.78,.37,1.12,.25,.36,.62,.61,1.11,.73,.27,.05,.52,.07,.74,.07,1.01,0,1.63-.51,1.88-1.53l5.74-21.38c.15-.58,.1-1.09-.17-1.58-.27-.49-.69-.8-1.24-.95-.57-.17-1.11-.12-1.61,.15-.5,.27-.84,.66-.99,1.19l-5.74,21.5c-.07,.24-.1,.46-.1,.68Zm10.32-7.35c0,.39,.12,.78,.37,1.12,.25,.34,.62,.61,1.14,.75,.07,0,.2,0,.37,.02,.17,.02,.32,.02,.4,.02,.94,0,1.53-.51,1.78-1.53l3.71-14.04c.15-.58,.1-1.12-.2-1.61-.27-.46-.69-.78-1.26-.92-.57-.17-1.11-.12-1.61,.15-.49,.27-.82,.66-.97,1.22l-3.71,14.16c0,.24-.02,.46-.02,.66Zm3.07-36.32c.82-1.39,1.91-2.43,3.29-3.16,1.36-.73,2.82-1.09,4.36-1.09,.3,0,.54,0,.67,.02v.78c0,2.34,.64,4.55,1.93,6.64,1.29,2.09,3.09,3.67,5.37,4.79-.45,1.02-1.09,1.87-1.96,2.6-2.28-1.92-4.92-2.87-7.97-2.87h-.79c-.69-3.06-2.33-5.62-4.9-7.71Z"/></g></svg>
